X:1
T:Ewing, 76.76 D
T:Ewing, 76.76 D
T:Alexander Ewing, 1853
T:Public Domain Courtesy of the Cyber Hymnal™
C:Alexander Ewing, 1853
Z:Public Domain
Z:Courtesy of the Cyber Hymnal™
%%score ( 1 2 ) ( 3 4 )
L:1/8
Q:1/4=110
M:4/4
K:D
V:1 treble 
V:2 treble 
V:3 bass 
V:4 bass 
V:1
 [A,D]2 | [A,E]2 [A,D]2 [DG]2 [DF]2 | [CE]4 D2 [DF]2 | [DA]2 [Fd]2 [Fc]2 [E^A]2 | [DB]6 [GB]2 | %5
 [FA]2 [DF]2 [CF]2 [^A,E]2 | [B,D]4 [CE]2 [DF]2 | [DF]2 [DF]2 [B,E]2 D2 | [CE]6 [CE]2 | %9
 [DG]2 [DF]2 [DB]2 [Fc]2 | [Fd]4 [Ae]2 A2 | f3 z f [Be]2 [^Gd]2 | [Ac]6 [EB]2 | %13
 A2 [DF]2 [CF]2 [^A,E]2 | [B,D]4 [CE]2 [DF]2 | [DF]2 [DF]2 [CE]3 D | D6 |] %17
V:2
 x2 | x8 | x4 D2 x2 | x8 | x8 | x8 | x8 | x6 D2 | x8 | x8 | x6 A2 | A2 A2 x5 | x8 | ^A2 x6 | x8 | %15
 x7 D | D6 |] %17
V:3
 [D,F,]2 | [D,G,]2 [D,F,]2 [D,B,]2 [D,A,]2 | [A,,G,]4 [D,F,]2 [D,A,]2 | %3
 [D,F,]2 [B,,B,]2 [F,^A,]2 [F,C]2 | [B,,B,]6 [G,,D]2 | [D,D]2 [D,A,]2 [F,^A,]2 [F,,F,]2 | %6
 [B,,F,]4 [A,,A,]2 [D,A,]2 | [D,A,]2 [D,A,]2 [G,,G,]2 [B,,F,]2 | [A,,A,]6 [A,,A,]2 | %9
 [G,,B,]2 [D,A,]2 [G,B,]2 [F,^A,]2 | B,4 [A,C]2 [A,C]2 | ([D,D]2 [F,D]2) [G,B,]2 [B,D]2 x | %12
 [A,E]6 [G,C]2 | [F,D]2 [D,A,]2 [F,^A,]2 [F,,F,]2 | B,,4 [A,,A,]2 [D,A,]2 | %15
 [D,A,]2 [F,,A,]2 [A,,G,]3 [D,F,] | [D,F,]6 |] %17
V:4
 x2 | x8 | x8 | x8 | x8 | x8 | x8 | x8 | x8 | x8 | B,4 x4 | x9 | x8 | x8 | B,,4 x4 | x8 | x6 |] %17

